X: 18149
T: Humours Of Cloyne, The
R: jig
M: 6/8
K: Dmixolydian
B|:c2A B2G|A2F GED|c2A BAG|ABA A2B|
c2A B2G|A2F GED|BcA dBG|1 GAG G2B:|2 GAG G2d||
|:g2e a2f|g2e dcB|~g3 geg|~a3 age|
~g3 ged|c2d edc|BcA BAG|1 ABA A2d:|2 ABA A2B||

